public/svgs/aboutus/letter3.svg

<svg width="45" height="46" viewBox="0 0 45 46" fill="none" xmlns="http://www.w3.org/2000/svg">
<g filter="url(#filter0_d_3631_10)">
<path d="M23.4345 18.8458L17.6813 26.872L9.5891 21.0714L15.3423 13.0452L23.4345 18.8458ZM34.6973 26.9139L28.9513 34.9299L21.1667 29.3498L26.9127 21.3338L34.6973 26.9139ZM36.9207 23.9046C36.727 24.167 36.5413 24.4263 36.3496 24.6953L28.494 19.0643C28.6978 18.7784 28.8993 18.4946 29.0973 18.2159C29.8473 17.1598 30.5552 16.1631 31.2961 15.1671C32.3081 13.8064 33.3479 12.431 34.3537 11.1004C35.2048 9.97441 36.0855 8.80935 36.9453 7.65874C37.7009 6.64763 37.6064 5.70803 36.6718 4.94196C36.6024 4.88577 36.5313 4.83095 36.4598 4.77969C36.3196 4.67923 36.1745 4.58934 36.0291 4.51199C34.934 3.93089 34.0267 4.14731 33.2553 5.17403C32.5025 6.17563 31.7656 7.21042 31.0534 8.21036C30.8842 8.44804 30.7149 8.68572 30.5459 8.92232C29.6591 10.1638 28.7742 11.4054 27.8894 12.647L27.8701 12.6742C26.9344 13.987 25.9989 15.3 25.0616 16.6117C24.413 16.1891 23.3276 15.4354 22.0346 14.5086C19.926 12.9971 17.8388 11.4395 16.955 10.7226C17.0242 10.626 17.0936 10.5284 17.1625 10.4303C17.5733 9.8439 17.8222 9.37736 17.7921 8.86594C17.7562 8.25684 17.3379 7.87621 16.891 7.55587C16.829 7.51142 16.7622 7.46615 16.6873 7.41628L16.6794 7.41061C16.6307 7.37828 16.5825 7.34499 16.5326 7.31436C15.3339 6.57437 14.3875 6.8012 13.5548 8.02758C13.249 8.47773 12.943 8.93668 12.6476 9.38009C12.1681 10.0993 11.6723 10.8428 11.1709 11.5592C10.6037 12.3694 10.0176 13.1892 9.45087 13.9818C8.66219 15.0846 7.84809 16.223 7.0677 17.36C6.4494 18.2605 6.18852 18.2364 5.82725 18.2031C5.20822 18.1453 4.8321 18.3796 4.62593 18.5857C4.30195 18.9099 4.1598 19.3863 4.20304 20.002C4.23623 20.4771 4.33972 20.9219 4.43948 21.3524L4.47256 21.4941C4.64119 22.2291 4.8012 22.9234 5.30148 23.282C5.85409 23.6781 6.58912 23.5151 7.36733 23.3395C7.40902 23.3335 7.48843 23.3199 7.58161 23.2816C7.73718 23.2174 7.86309 23.1923 8.18502 23.4231L8.20148 23.4348C9.63912 24.482 11.0703 25.5105 12.2807 26.3781C12.7403 26.7076 13.1999 27.037 13.66 27.3655L13.6887 27.3861C14.1576 27.7222 14.6266 28.0584 15.0955 28.3945C15.4189 28.6263 15.742 28.8579 16.0654 29.0897C16.0829 29.1023 16.1 29.1158 16.118 29.1287L15.5235 29.9578C14.4635 31.4355 13.4644 32.8285 12.4494 34.2525C12.4437 34.2523 12.4378 34.2519 12.4322 34.2504L12.377 34.2442C12.0481 34.202 11.6739 34.1556 11.2836 34.2041C10.7925 34.2662 10.3875 34.5273 10.1729 34.9197C9.95488 35.3186 9.95856 35.8033 10.1827 36.2499C10.3235 36.5303 10.5175 36.7938 10.7431 37.0132C11.3579 37.609 12.0331 38.2456 12.869 39.0153C12.9122 39.0553 12.9578 39.0931 13.0091 39.1299C13.1132 39.2045 13.2171 39.2597 13.2999 39.305C13.3382 39.3247 13.3737 39.3437 13.3986 39.359L13.5592 39.4575C13.7842 39.5944 14.0846 39.5212 14.2417 39.2902L14.3542 39.1247C14.8733 38.3608 15.3889 37.5892 15.8884 36.8419C17.0569 35.0934 18.2625 33.2893 19.525 31.5708L20.6274 32.3598L20.6435 32.3713C21.438 32.9396 22.2327 33.5079 23.0264 34.0769C24.712 35.2851 26.0101 36.2208 27.2354 37.1106C27.3694 37.2079 27.5177 37.4988 27.5891 37.6385C27.9278 38.3044 28.2572 38.9855 28.6062 39.7062C28.7472 39.9983 28.8913 40.2965 29.0415 40.6055L29.1955 40.921C29.2309 40.9925 29.2816 41.0532 29.3437 41.0977C29.4206 41.1529 29.5142 41.1841 29.6141 41.1852C29.7943 41.1874 29.9675 41.0897 30.0664 40.9311L30.2611 40.6193C30.4198 40.3651 30.5609 40.1303 30.6977 39.9026C30.9637 39.4599 31.1931 39.0782 31.4487 38.7254C34.6747 34.2729 37.5552 30.3177 40.2545 26.6341C40.817 25.8666 41.0188 25.3407 40.9512 24.8191C40.8742 24.2241 40.4437 23.8527 40.1265 23.6253C40.0059 23.5388 39.869 23.451 39.7079 23.3573C39.5792 23.2817 39.4578 23.2203 39.3356 23.1712C38.3392 22.766 37.5943 22.9924 36.9207 23.9046Z" fill="black"/>
</g>
<defs>
<filter id="filter0_d_3631_10" x="0.195312" y="0.195312" width="44.7695" height="44.9902" filterUnits="userSpaceOnUse" color-interpolation-filters="sRGB">
<feFlood flood-opacity="0" result="BackgroundImageFix"/>
<feColorMatrix in="SourceAlpha" type="matrix" values="0 0 0 0 0 0 0 0 0 0 0 0 0 0 0 0 0 0 127 0" result="hardAlpha"/>
<feOffset/>
<feGaussianBlur stdDeviation="2"/>
<feColorMatrix type="matrix" values="0 0 0 0 0.94902 0 0 0 0 0.866667 0 0 0 0 0.486275 0 0 0 1 0"/>
<feBlend mode="normal" in2="BackgroundImageFix" result="effect1_dropShadow_3631_10"/>
<feBlend mode="normal" in="SourceGraphic" in2="effect1_dropShadow_3631_10" result="shape"/>
</filter>
</defs>
</svg>

<svg xmlns="http://www.w3.org/2000/svg" width="45" height="46" fill="none" viewBox="0 0 45 46"><g filter="url(#a)"><path fill="#000" d="m23.435 18.846-5.754 8.026-8.092-5.8 5.753-8.027zm11.262 8.068-5.746 8.016-7.784-5.58 5.746-8.016zm2.224-3.01c-.194.263-.38.522-.571.791l-7.856-5.63.603-.85c.75-1.055 1.458-2.052 2.2-3.048a607 607 0 0 1 3.057-4.067c.85-1.126 1.732-2.29 2.591-3.441.756-1.011.661-1.951-.273-2.717a4 4 0 0 0-.643-.43c-1.095-.581-2.002-.365-2.774.662a147 147 0 0 0-2.202 3.036l-.507.712-2.657 3.725-.019.027q-1.403 1.97-2.808 3.938a95 95 0 0 1-3.027-2.103c-2.109-1.512-4.196-3.07-5.08-3.786l.208-.293c.41-.586.66-1.053.63-1.564-.037-.61-.455-.99-.902-1.31a7 7 0 0 0-.204-.14l-.008-.005q-.071-.05-.146-.097c-1.2-.74-2.146-.513-2.978.714-.306.45-.612.909-.907 1.352-.48.72-.976 1.463-1.477 2.18-.567.81-1.153 1.63-1.72 2.422a215 215 0 0 0-2.383 3.378c-.619.9-.88.876-1.24.843-.62-.058-.996.177-1.202.383-.324.324-.466.8-.423 1.416.033.475.137.92.236 1.35l.034.142c.168.735.328 1.43.828 1.788.553.396 1.288.233 2.066.058a1 1 0 0 0 .215-.058c.155-.065.281-.09.603.141l.016.012a664 664 0 0 0 5.459 3.93l.029.021 1.406 1.009.97.695.053.039-.594.829c-1.06 1.478-2.06 2.87-3.075 4.294l-.017-.002-.055-.006c-.329-.042-.703-.088-1.093-.04-.492.062-.897.323-1.111.716-.218.399-.214.883.01 1.33.14.28.335.544.56.763.615.596 1.29 1.233 2.126 2.002q.064.06.14.115c.104.075.208.13.29.175q.061.03.1.054l.16.099a.51.51 0 0 0 .683-.168l.112-.165c.52-.764 1.035-1.536 1.534-2.283 1.169-1.749 2.374-3.553 3.637-5.271l1.102.789.017.011 2.382 1.706a822 822 0 0 1 4.21 3.034c.133.097.282.388.353.528.339.665.668 1.346 1.017 2.067l.435.9.154.315a.47.47 0 0 0 .419.264.53.53 0 0 0 .452-.254l.195-.312c.159-.254.3-.489.437-.716.266-.443.495-.825.75-1.178 3.227-4.452 6.107-8.407 8.807-12.09.562-.768.764-1.294.696-1.816-.077-.595-.507-.966-.825-1.194a5 5 0 0 0-.418-.268 3 3 0 0 0-.372-.186c-.997-.405-1.742-.179-2.415.734"/></g><defs><filter id="a" width="44.77" height="44.99" x=".195" y=".195" color-interpolation-filters="sRGB" filterUnits="userSpaceOnUse"><feFlood flood-opacity="0" result="BackgroundImageFix"/><feColorMatrix in="SourceAlpha" result="hardAlpha" values="0 0 0 0 0 0 0 0 0 0 0 0 0 0 0 0 0 0 127 0"/><feOffset/><feGaussianBlur stdDeviation="2"/><feColorMatrix values="0 0 0 0 0.94902 0 0 0 0 0.866667 0 0 0 0 0.486275 0 0 0 1 0"/><feBlend in2="BackgroundImageFix" result="effect1_dropShadow_3631_10"/><feBlend in="SourceGraphic" in2="effect1_dropShadow_3631_10" result="shape"/></filter></defs></svg>
